img/logo.svg

<svg width="32" height="32" viewBox="0 0 32 32" fill="none" xmlns="http://www.w3.org/2000/svg">
<path d="M14.7652 2.50782C15.1889 1.36081 16.8111 1.36081 17.2348 2.50782C17.9082 4.33092 20.182 4.9402 21.6767 3.69803C22.6171 2.91652 24.0221 3.72767 23.8155 4.93283C23.4871 6.84836 25.1516 8.51295 27.0672 8.18455C28.2723 7.97793 29.0835 9.38288 28.302 10.3233C27.0598 11.818 27.6691 14.0918 29.4922 14.7652C30.6392 15.1889 30.6392 16.8111 29.4922 17.2348C27.6691 17.9082 27.0598 20.182 28.302 21.6767C29.0835 22.6171 28.2723 24.0221 27.0672 23.8155C25.1516 23.4871 23.4871 25.1516 23.8155 27.0672C24.0221 28.2723 22.6171 29.0835 21.6767 28.302C20.182 27.0598 17.9082 27.6691 17.2348 29.4922C16.8111 30.6392 15.1889 30.6392 14.7652 29.4922C14.0918 27.6691 11.818 27.0598 10.3233 28.302C9.38288 29.0835 7.97793 28.2723 8.18455 27.0672C8.51295 25.1516 6.84836 23.4871 4.93283 23.8155C3.72767 24.0221 2.91652 22.6171 3.69803 21.6767C4.9402 20.182 4.33092 17.9082 2.50782 17.2348C1.36081 16.8111 1.36081 15.1889 2.50782 14.7652C4.33092 14.0918 4.9402 11.818 3.69803 10.3233C2.91652 9.38288 3.72767 7.97793 4.93283 8.18455C6.84836 8.51295 8.51295 6.84836 8.18455 4.93283C7.97793 3.72767 9.38288 2.91652 10.3233 3.69803C11.818 4.9402 14.0918 4.33092 14.7652 2.50782Z" stroke="#151515" stroke-width="1.5"/>
</svg>

<svg width="32" height="32" fill="none" xmlns="http://www.w3.org/2000/svg"><path d="M14.765 2.508c.424-1.147 2.046-1.147 2.47 0a2.816 2.816 0 0 0 4.442 1.19c.94-.781 2.345.03 2.139 1.235a2.816 2.816 0 0 0 3.251 3.252c1.205-.207 2.017 1.198 1.235 2.138a2.816 2.816 0 0 0 1.19 4.442c1.147.424 1.147 2.046 0 2.47a2.816 2.816 0 0 0-1.19 4.442c.782.94-.03 2.345-1.235 2.139a2.816 2.816 0 0 0-3.252 3.251c.207 1.205-1.198 2.017-2.138 1.235a2.816 2.816 0 0 0-4.442 1.19c-.424 1.147-2.046 1.147-2.47 0a2.816 2.816 0 0 0-4.442-1.19c-.94.782-2.345-.03-2.138-1.235a2.816 2.816 0 0 0-3.252-3.252c-1.205.207-2.016-1.198-1.235-2.138a2.816 2.816 0 0 0-1.19-4.442c-1.147-.424-1.147-2.046 0-2.47a2.816 2.816 0 0 0 1.19-4.442c-.781-.94.03-2.345 1.235-2.138a2.816 2.816 0 0 0 3.252-3.252c-.207-1.205 1.198-2.016 2.138-1.235a2.816 2.816 0 0 0 4.442-1.19Z" stroke="#151515" stroke-width="1.5"/></svg>
